X: 1
T: Key to the Cellar   [Em]
N: What's this tune's real name?
S: Barnes II p.40
R: march
Z: 2015 John Chambers <jc:trillian.mit.edu>
M: 3/4
L: 1/8
K: Edor
|:\
"Em"G2E2 E2D2 E4 | G2E2 E2G2 "D"FGA2 |\
"Em"G2E2 E2D2 E4 | "D"F2D2 D2B2 "(Bm)"A2GF :|
|:\
"Em" E2e2 e2d2 e4 | E2e2 e2f2 g2e2 |\
"(C)" E2e2 e2dc "G"d3B | "D"A2F2 D2B2 "(Bm)"A2GF :|

%%sep 1 1 500
%%sep 1 1 500

